X:1
T:Tantum Ergo, 87.87.87
T:Samuel Webbe, 1792
T:Tantum Ergo, 87.87.87
T:Public Domain
C:Samuel Webbe, 1792
Z:Public Domain
%%score ( 1 2 ) ( 3 4 )
L:1/8
M:4/4
K:G
V:1 treble 
V:2 treble 
V:3 bass 
V:4 bass 
V:1
 [DG]2 [DA]2 [DB]2 [Gc]2 | [Fd]2 (ED) [DB]2 [DA]2 | [B,G]2 [DG]2 [EG]2 [Ec]2 | B2 z C [B,G]4 | %4
 [CE]2 [CE]2 [B,D]2 [B,D]2 x2 | [B,G]2 [DG]2 [DG]2 [DF]2 | [DA]2 [Dd]2 (^cB)(AG) | %7
 [DF]2 [^CE]2 D4 | [DF]2 [DF]2 [DG]2 [B,D]2 | E2 [^DF]2 [EG]2 [FA]2 | (BA)(GF) [CE]2 [Ec]2 | %11
 B2 z C [B,G]4 |] %12
V:2
 x8 | x2 c2 x4 | x8 | D3 A2 x3 | x10 | x8 | x4 D2 E2 | x4 D4 | x8 | E2 x6 | G2 D2 x4 | D3 A2 x3 |] %12
V:3
 [G,B,]2 [F,A,]2 G,2 [E,G,]2 | [D,A,]2 ([E,G,][F,A,]) G,2 [D,F,]2 | %2
 [E,G,]2 [B,,G,]2 [C,G,]2 [A,,G,]2 | [D,G,]2 [D,F,]2 [G,,G,]4 | [C,G,]2 [C,G,]2 (G,A,)(B,C) x2 | %5
 (G,,A,,)(B,,C,) [D,B,]2 [D,B,]2 | [D,F,]2 [F,A,]2 G,2 [E,B,]2 | A,,2 z G, [D,F,]4 | %8
 A,2 z C, [B,,G,]2 [G,,G,]2 | [C,G,]2 [B,,B,]2 [E,B,]2 [D,D]2 | [G,D]2 [B,,G,]2 [C,G,]2 [A,,G,]2 | %11
 (B,,C,) [D,F,]2 [G,,G,]4 |] %12
V:4
 x4 G,2 x2 | x4 G,2 x2 | x8 | x8 | x4 G,2 G,4 | D2 B,2 x4 | x4 G,2 x2 | A,3 A,,2 x3 | D,3 A,2 x3 | %9
 x8 | x8 | G,2 x6 |] %12

